build/svg/cmd/lc_tablenumberformatdialog.svg

<?xml version="1.0" encoding="UTF-8" standalone="no"?>
<svg
   xmlns:dc="http://purl.org/dc/elements/1.1/"
   xmlns:cc="http://creativecommons.org/ns#"
   xmlns:rdf="http://www.w3.org/1999/02/22-rdf-syntax-ns#"
   xmlns:svg="http://www.w3.org/2000/svg"
   xmlns="http://www.w3.org/2000/svg"
   xmlns:sodipodi="http://sodipodi.sourceforge.net/DTD/sodipodi-0.dtd"
   xmlns:inkscape="http://www.inkscape.org/namespaces/inkscape"
   viewBox="0 0 24 24"
   version="1.1"
   id="svg6"
   sodipodi:docname="lc_tablenumberformatdialog.svg"
   inkscape:version="0.92.5 (2060ec1f9f, 2020-04-08)"
   inkscape:export-filename="/home/jupiter007/Libreoffice yaru theme fullcolor/build/cmd/lc_tablenumberformatdialog.png"
   inkscape:export-xdpi="95"
   inkscape:export-ydpi="95">
  <metadata
     id="metadata12">
    <rdf:RDF>
      <cc:Work
         rdf:about="">
        <dc:format>image/svg+xml</dc:format>
        <dc:type
           rdf:resource="http://purl.org/dc/dcmitype/StillImage" />
      </cc:Work>
    </rdf:RDF>
  </metadata>
  <defs
     id="defs10" />
  <sodipodi:namedview
     pagecolor="#ffffff"
     bordercolor="#666666"
     borderopacity="1"
     objecttolerance="10"
     gridtolerance="10"
     guidetolerance="10"
     inkscape:pageopacity="0"
     inkscape:pageshadow="2"
     inkscape:window-width="1920"
     inkscape:window-height="1011"
     id="namedview8"
     showgrid="true"
     inkscape:zoom="16"
     inkscape:cx="9.4834484"
     inkscape:cy="11.338867"
     inkscape:window-x="0"
     inkscape:window-y="32"
     inkscape:window-maximized="1"
     inkscape:current-layer="svg6">
    <inkscape:grid
       type="xygrid"
       id="grid822" />
  </sodipodi:namedview>
  <path
     sodipodi:nodetypes="cccscsccccccccscscccccc"
     inkscape:connector-curvature="0"
     id="path4237-1"
     d="M 6.9941692,2.9994337 C 5.7359682,3.0145518 4.815279,2.9691975 4.0625294,3.3841896 3.686164,3.5916857 3.3892972,3.9435975 3.2246383,4.3822495 3.0599643,4.8209015 3.000021,5.3418337 3.000021,5.9994337 V 7.4876992 18.000566 c 0,0.6576 0.059906,1.17857 0.2246173,1.617185 0.1646741,0.438614 0.4615295,0.788522 0.8378911,0.996094 0.7527194,0.415106 1.6735408,0.371528 2.9316398,0.386721 h 0.002 10.0058618 0.0038 c 1.25819,-0.01512 2.17889,0.03024 2.93164,-0.384793 0.376365,-0.207496 0.673221,-0.55937 0.837891,-0.998022 0.164523,-0.43869 0.224617,-0.959585 0.224617,-1.617185 V 7.4662312 5.9994337 c 0,-0.6576 -0.05991,-1.17857 -0.224617,-1.6171842 C 20.610666,3.9436353 20.313811,3.5937266 19.937449,3.386155 19.184681,2.9710116 18.263848,3.0146274 17.00576,2.9994337 h -0.002 -10.0058614 z"
     style="font-style:normal;font-variant:normal;font-weight:normal;font-stretch:normal;font-size:15px;line-height:125%;font-family:Ubuntu;-inkscape-font-specification:Ubuntu;text-align:center;letter-spacing:0px;word-spacing:0px;writing-mode:lr-tb;text-anchor:middle;display:inline;opacity:0.6;fill:#000000;fill-opacity:1;stroke:none;stroke-width:0.99980205" />
  <path
     inkscape:connector-curvature="0"
     id="path1993"
     d="M 9.9833976,4.0266337 C 8.4268181,4.0379723 6.8734057,4.0152952 5.3234554,4.0655629 4.8622283,4.1082715 4.3072689,4.2719251 4.1681181,4.7755094 3.9491322,5.4108477 4.0597212,6.1093047 4.0223039,6.7574177 c -0.00794,2.2971225 -0.023055,9.5969753 0.021543,11.8863483 0.039118,0.461934 0.2025449,1.012649 0.6987553,1.163641 0.6324586,0.22526 1.2841474,0.122835 1.9359761,0.154205 1.4242357,0.0076 4.8505627,0.01134 6.2764197,0.01134 1.70453,3.4e-4 3.40839,-0.0038 5.107189,-0.0189 0.511911,-0.01134 1.183699,0.0189 1.584745,-0.405165 0.4211,-0.539793 0.287093,-1.268032 0.322734,-1.903786 0.01172,-2.444334 0.02759,-9.9116577 -0.02192,-12.3573533 C 19.898459,4.8857204 19.777741,4.424807 19.372606,4.2432763 18.704435,3.949229 17.946401,4.0754652 17.246682,4.03767 15.492278,4.0263314 11.737809,4.0263314 9.9833712,4.0263314 Z"
     style="opacity:1;vector-effect:none;fill:#fa9381;fill-opacity:1;stroke:none;stroke-width:1;stroke-linecap:round;stroke-linejoin:bevel;stroke-miterlimit:4;stroke-dasharray:none;stroke-dashoffset:0;stroke-opacity:1"
     sodipodi:nodetypes="cccccccscccccccc" />
  <path
     style="opacity:1;fill:#ffffff;fill-opacity:1;stroke:none;stroke-width:8.77999973;stroke-linejoin:round;stroke-miterlimit:4;stroke-dasharray:none;stroke-opacity:1"
     d="M 12.164062 6.0019531 A 6 6 0 0 0 7.2402344 8.3476562 A 6 6 0 0 0 7.0117188 15.332031 A 6 6 0 0 0 13.552734 17.794922 L 13.294922 16.830078 A 5 5 0 0 1 7.84375 14.777344 A 5 5 0 0 1 8.0351562 8.9550781 A 5 5 0 0 1 13.607422 7.265625 A 5 5 0 0 1 17.001953 12 L 17 12 C 17 13.501646 17 14 15 14 L 15 12 L 15 9 L 14 9 L 14 9.7695312 A 3 3 0 0 0 12 9 A 3 3 0 0 0 9 12 A 3 3 0 0 0 12 15 A 3 3 0 0 0 14 14.232422 L 14 15 L 15 15 C 18 15 18 14 18 12 A 6 6 0 0 0 17.822266 10.552734 A 6 6 0 0 0 13.929688 6.3183594 A 6 6 0 0 0 12.164062 6.0019531 z M 12 10 A 2 2 0 0 1 14 12 A 2 2 0 0 1 12 14 A 2 2 0 0 1 10 12 A 2 2 0 0 1 12 10 z "
     id="path819" />
</svg>

<svg xmlns="http://www.w3.org/2000/svg" viewBox="0 0 24 24"><path d="M6.994 3c-1.258.015-2.179-.03-2.931.384-.377.208-.674.56-.838.998C3.06 4.821 3 5.342 3 6v12.002c0 .657.06 1.178.225 1.617.164.438.461.788.838.996.752.415 1.673.371 2.931.387h10.012c1.258-.016 2.179.03 2.931-.385.377-.208.674-.56.838-.998.165-.439.225-.96.225-1.617V5.999c0-.657-.06-1.178-.225-1.617a1.875 1.875 0 00-.838-.996c-.752-.415-1.673-.371-2.931-.387H6.998z" style="line-height:125%;-inkscape-font-specification:Ubuntu;text-align:center" font-weight="400" font-size="15" font-family="Ubuntu" letter-spacing="0" word-spacing="0" text-anchor="middle" opacity=".6"/><path d="M9.983 4.027c-1.556.011-3.11-.012-4.66.039-.46.042-1.016.206-1.155.71-.219.635-.108 1.333-.146 1.981-.008 2.298-.023 9.597.022 11.887.039.462.202 1.012.699 1.163.632.226 1.284.123 1.936.155 1.424.007 4.85.011 6.276.011 1.705 0 3.408-.004 5.107-.019.512-.011 1.184.019 1.585-.405.421-.54.287-1.268.323-1.904.011-2.444.027-9.912-.022-12.357-.05-.402-.17-.863-.575-1.045-.669-.294-1.427-.168-2.126-.205-1.755-.012-5.51-.012-7.264-.012z" fill="#fa9381"/><path d="M12.164 6.002A6 6 0 007.24 8.348a6 6 0 00-.228 6.984 6 6 0 006.54 2.463l-.257-.965a5 5 0 01-5.451-2.053 5 5 0 01.191-5.822 5 5 0 015.572-1.69A5 5 0 0117.002 12H17c0 1.502 0 2-2 2V9h-1v.77A3 3 0 0012 9a3 3 0 00-3 3 3 3 0 003 3 3 3 0 002-.768V15h1c3 0 3-1 3-3a6 6 0 00-.178-1.447 6 6 0 00-3.892-4.235 6 6 0 00-1.766-.316zM12 10a2 2 0 012 2 2 2 0 01-2 2 2 2 0 01-2-2 2 2 0 012-2z" fill="#fff"/></svg>
